X: 04043
T: JIMMA'S JIG
C: Bob McQuillen 24 July 79
B: Bob's Note Book 04 #43
R: jig
Z: 2020 John Chambers <jc:trillian.mit.edu>
M: 6/8
L: 1/8
K: D
A \
| DFA Bde | fed B2A | fef edB | AFA BAF |\
| DFA BdB | AFA B2A | faf edB AFA B2 :|
|: a \
| faa fab | aba f2e | def efe dBA B2a |\
| faa fab | aba fef | dBA afe | fdd d2 :|
%%begintext align
%% Over in Temple, N.N., lives a young man
%% who has been close to me all through high
%% school. He paints really pretty pictures,
%% using bright, happy colors, and so this tune
%% is for Rim Rockwood, with love from Mac.
%%endtext

%%sep 1 1 500

%%sep 1 1 500

